X:12
T:La jeune Isabelle
M:2/4
L:1/8
K:Cm
%%staves [1 3]
V:1
c>de>f | g2 {f}e2 | g>fe>d |1 c4 :|2 c3 z/d/ |: f2 e>d | c2 !!=B2 | c>ed>d |
G4 | c>de>f | g2 {f}e2 | g>f!!e>d |1 c3z/d/ :|2 c4 |]
V:2 
C4 | C,>=B,,C,>D, | E,>F,G,>G,, |1 C,>G,A,>=B, :|2 C,3z/G,/ |: =B,,>G,, C,>G, | _A,2 G,>F, | E,>C,G,>F, | 
E,>F,E,>D, | C,2C,,2 | C,>=B,,C,>D, | E,>F,G,>G,, |1 C,3z/G,/ :|2 C,4 |]
V:3
c'4 | c>=Bc>d | e>fg>G | c>ga>=b :| c3z/2g/2 |: =B>G c>g | _a2 g>f | e>cg>f | 
e>fe>d | c2c2 | c>=Bc>d | e>fg>G | c3z/2g/2 :| c4 |]
